X: 1
T: Rakovalkealla
C: Reino Helismaa 1944 (s\"av. & san.)
M: C
L: 1/8
K: Em
"Intro"B \
| "Am7"cc "D7"dd "G"B3 G | "Am6"AA "B7"BB "Em"G3 \
|: G \
| "Am6"FF GA "Em"B^c ^de | "F#7"fg "F#7-5"ag  "B7"Hf3 ||
B \
| "Em"ee fg "B7"fe^dB | "Am7"ee "D7"ce "Gmaj7"d3 B \
| "Am"AA "B7"Bc "Em"BG FE | "F#7"F2 "F#7-5"F2 "B7"z3 ||
B \
| "Am7"ee "D7"ce "Gmaj7"dB "G6"Gd | "Am6"cA "B7"Fc "Em"B3 G \
| "Am6"FF GA "Em"BG "B7"B,^D | F2 "Em"E2 z3 ||
B \
| "Am7"cc "D7"dd "Gmaj9"B2 "G6"zG | "Am"AA "B7"BB "Em"G2 zG \
| "Am6"FF GA "Em"BG "B7"B,^D | "B7"F2 "Em"E2 z3 :|
%%sep 0 1 8cm
